lib/healthicons/icons/solid/typography/C.svg

<svg fill="none" height="48" viewBox="0 0 48 48" width="48" xmlns="http://www.w3.org/2000/svg"><path clip-rule="evenodd" d="m31.0711 16.9289c-1.3986-1.3985-3.1804-2.3509-5.1202-2.7367-1.9398-.3859-3.9505-.1879-5.7777.569-1.8273.7569-3.3891 2.0386-4.4879 3.6831s-1.6853 3.5779-1.6853 5.5557.5865 3.9112 1.6853 5.5557 2.6606 2.9262 4.4879 3.6831c1.8272.7569 3.8379.9549 5.7777.5691 1.9398-.3859 3.7216-1.3383 5.1202-2.7368.781-.7811 2.0473-.7811 2.8284 0 .781.781.781 2.0474 0 2.8284-1.9579 1.9579-4.4525 3.2913-7.1682 3.8315-2.7158.5402-5.5307.2629-8.0889-.7967-2.5581-1.0596-4.7446-2.854-6.283-5.1563-1.5383-2.3023-2.3594-5.0091-2.3594-7.778s.8211-5.4757 2.3594-7.778c1.5384-2.3023 3.7249-4.0967 6.283-5.1563 2.5582-1.0596 5.3731-1.33688 8.0889-.7967 2.7157.5402 5.2103 1.8736 7.1682 3.8315.781.7811.781 2.0474 0 2.8284-.7811.7811-2.0474.7811-2.8284 0z" fill="#333" fill-rule="evenodd"/></svg>

<svg width="48" height="48" viewBox="0 0 48 48" fill="none" xmlns="http://www.w3.org/2000/svg">
<path fill-rule="evenodd" clip-rule="evenodd" d="M31.0711 16.9289C29.6725 15.5304 27.8907 14.578 25.9509 14.1922C24.0111 13.8063 22.0004 14.0043 20.1732 14.7612C18.3459 15.5181 16.7841 16.7998 15.6853 18.4443C14.5865 20.0888 14 22.0222 14 24C14 25.9778 14.5865 27.9112 15.6853 29.5557C16.7841 31.2002 18.3459 32.4819 20.1732 33.2388C22.0004 33.9957 24.0111 34.1937 25.9509 33.8079C27.8907 33.422 29.6725 32.4696 31.0711 31.0711C31.8521 30.29 33.1184 30.29 33.8995 31.0711C34.6805 31.8521 34.6805 33.1185 33.8995 33.8995C31.9416 35.8574 29.447 37.1908 26.7313 37.731C24.0155 38.2712 21.2006 37.9939 18.6424 36.9343C16.0843 35.8747 13.8978 34.0803 12.3594 31.778C10.8211 29.4757 10 26.7689 10 24C10 21.2311 10.8211 18.5243 12.3594 16.222C13.8978 13.9197 16.0843 12.1253 18.6424 11.0657C21.2006 10.0061 24.0155 9.72882 26.7313 10.269C29.447 10.8092 31.9416 12.1426 33.8995 14.1005C34.6805 14.8816 34.6805 16.1479 33.8995 16.9289C33.1184 17.71 31.8521 17.71 31.0711 16.9289Z" fill="#333333"/>
</svg>
